sources/design/Outline/5.svg

<svg:svg xmlns:cc="http://creativecommons.org/ns#" xmlns:dc="http://purl.org/dc/elements/1.1/" xmlns:inkscape="http://www.inkscape.org/namespaces/inkscape" xmlns:rdf="http://www.w3.org/1999/02/22-rdf-syntax-ns#" xmlns:sodipodi="http://sodipodi.sourceforge.net/DTD/sodipodi-0.dtd" xmlns:svg="http://www.w3.org/2000/svg" xml:space="preserve" width="1000" height="1000" version="1.1" style="clip-rule:evenodd;fill-rule:evenodd;image-rendering:optimizeQuality;shape-rendering:geometricPrecision;text-rendering:geometricPrecision" viewBox="0 0 1000 1000" id="svg10" sodipodi:docname="5.svg" inkscape:version="1.1.1 (3bf5ae0d25, 2021-09-20)"><svg:metadata id="metadata14"><rdf:RDF><cc:Work rdf:about=""><dc:format>image/svg+xml</dc:format><dc:type rdf:resource="http://purl.org/dc/dcmitype/StillImage" /></cc:Work></rdf:RDF></svg:metadata><sodipodi:namedview pagecolor="#ffffff" bordercolor="#666666" borderopacity="1" objecttolerance="10" gridtolerance="10" guidetolerance="10" inkscape:pageopacity="0" inkscape:pageshadow="2" inkscape:window-width="1920" inkscape:window-height="1009" id="namedview12" showgrid="false" inkscape:zoom="0.84890885" inkscape:cx="178.46439" inkscape:cy="418.18388" inkscape:window-x="1920" inkscape:window-y="0" inkscape:window-maximized="1" inkscape:current-layer="svg10" showguides="true" inkscape:guide-bbox="true" inkscape:document-rotation="0" inkscape:pagecheckerboard="0"><sodipodi:guide position="0,1000" orientation="0,1" id="guide16" inkscape:label="" inkscape:locked="true" inkscape:color="rgb(0,0,255)" /><sodipodi:guide position="1763.3122,2036.1693" orientation="1000,0" id="guide18" /><sodipodi:guide position="0,200" orientation="0,1" id="guide20" inkscape:label="base" inkscape:locked="true" inkscape:color="rgb(0,0,255)" /><inkscape:grid type="xygrid" id="grid24" originx="-473.37552" originy="-489.69235" /><sodipodi:guide position="0,0" orientation="0,1" id="guide34" inkscape:label="bottom" inkscape:locked="true" inkscape:color="rgb(0,0,255)" /><sodipodi:guide position="225.05109,1693.3186" orientation="0,1" id="guide44" inkscape:label="" inkscape:locked="false" inkscape:color="rgb(0,0,255)" /><sodipodi:guide position="0,900" orientation="0,1" id="guide46" inkscape:label="" inkscape:locked="true" inkscape:color="rgb(0,0,255)" /><sodipodi:guide position="449.2851,654.88351" orientation="-1,0" id="guide841" inkscape:label="width" inkscape:locked="false" inkscape:color="rgb(0,0,255)" /></sodipodi:namedview>
 <svg:defs id="defs4"><inkscape:path-effect effect="fillet_chamfer" id="path-effect8273" is_visible="true" lpeversion="1" satellites_param="F,0,0,1,0,0,0,1 @ F,0,0,1,0,12.857876,0,1 @ F,0,0,1,0,12.857876,0,1 @ F,0,0,1,0,0,0,1 @ F,0,0,1,0,0,0,1 @ F,0,0,1,0,0,0,1 @ F,0,0,1,0,0,0,1 @ F,0,0,1,0,0,0,1 @ F,0,0,1,0,0,0,1 @ F,0,0,1,0,0,0,1 @ F,0,0,1,0,0,0,1 @ F,0,0,1,0,0,0,1 @ F,0,0,1,0,0,0,1 @ F,0,0,1,0,0,0,1 @ F,0,0,1,0,0,0,1 @ F,0,0,1,0,0,0,1 @ F,0,0,1,0,0,0,1 @ F,0,0,1,0,0,0,1 @ F,0,0,1,0,12.857876,0,1 @ F,0,0,1,0,12.857876,0,1 @ F,0,0,1,0,0,0,1 @ F,0,0,1,0,0,0,1 @ F,0,0,1,0,0,0,1 @ F,0,0,1,0,0,0,1 @ F,0,0,1,0,0,0,1 @ F,0,0,1,0,0,0,1 @ F,0,0,1,0,0,0,1 @ F,0,0,1,0,0,0,1 @ F,0,0,1,0,12.857876,0,1 @ F,0,0,1,0,12.857876,0,1 @ F,0,0,1,0,0,0,1 @ F,0,0,1,0,14.911836,0,1" unit="px" method="auto" mode="F" radius="0" chamfer_steps="1" flexible="false" use_knot_distance="true" apply_no_radius="true" apply_with_radius="true" only_selected="false" hide_knots="false" /><inkscape:path-effect effect="fillet_chamfer" id="path-effect855" is_visible="true" lpeversion="1" satellites_param="F,0,0,1,0,13.229378,0,1 @ F,0,0,1,0,14.338826,0,1 @ F,0,0,1,0,0,0,1 @ F,0,0,1,0,0,0,1 @ F,0,0,1,0,0,0,1 @ F,0,0,1,0,0,0,1 @ F,0,0,1,0,0,0,1 @ F,0,0,1,0,0,0,1 @ F,0,0,1,0,0,0,1 @ F,0,0,1,0,0,0,1 @ F,0,0,1,0,0,0,1 @ F,0,0,1,0,0,0,1 @ F,0,0,1,0,0,0,1 @ F,0,0,1,0,0,0,1 @ F,0,0,1,0,0,0,1 @ F,0,0,1,0,0,0,1 @ F,0,0,1,0,13.824939,0,1 @ F,0,0,1,0,23.112865,0,1 @ F,0,0,1,0,0,0,1 @ F,0,0,1,0,0,0,1 @ F,0,0,1,0,0,0,1 @ F,0,0,1,0,0,0,1 @ F,0,0,1,0,0,0,1 @ F,0,0,1,0,0,0,1 @ F,0,0,1,0,0,0,1 @ F,0,0,1,0,0,0,1 @ F,0,0,1,0,12.475733,0,1 @ F,0,0,1,0,10.867114,0,1 @ F,0,0,1,0,0,0,1 @ F,0,0,1,0,10.322295,0,1 @ F,0,0,1,0,8.7255378,0,1" unit="px" method="auto" mode="F" radius="0" chamfer_steps="1" flexible="false" use_knot_distance="true" apply_no_radius="true" apply_with_radius="true" only_selected="true" hide_knots="false" /><inkscape:path-effect effect="fillet_chamfer" id="path-effect854" is_visible="true" lpeversion="1" satellites_param="F,0,0,1,0,26.881322,0,1 @ F,0,0,1,0,36.39013,0,1 @ F,0,0,1,0,0,0,1 @ F,0,0,1,0,0,0,1 @ F,0,0,1,0,0,0,1 @ F,0,0,1,0,0,0,1 @ F,0,0,1,0,0,0,1 @ F,0,0,1,0,0,0,1 @ F,0,0,1,0,0,0,1 @ F,0,0,1,0,0,0,1 @ F,0,0,1,0,0,0,1 @ F,0,0,1,0,0,0,1 @ F,0,0,1,0,26.312658,0,1 @ F,0,0,1,0,28.862908,0,1 @ F,0,0,1,0,0,0,1 @ F,0,0,1,0,0,0,1 @ F,0,0,1,0,0,0,1 @ F,0,0,1,0,0,0,1 @ F,0,0,1,0,0,0,1 @ F,0,0,1,0,0,0,1 @ F,0,0,1,0,0,0,1 @ F,0,0,1,0,0,0,1 @ F,0,1,1,0,15.310125,0,1 @ F,0,0,1,0,30.981965,0,1 @ F,0,0,1,0,0,0,1 @ F,0,0,1,0,21.626853,0,1" unit="px" method="auto" mode="F" radius="0" chamfer_steps="1" flexible="false" use_knot_distance="true" apply_no_radius="true" apply_with_radius="true" only_selected="true" hide_knots="false" /><inkscape:path-effect effect="spiro" id="path-effect853" is_visible="true" lpeversion="1" /><inkscape:path-effect effect="spiro" id="path-effect852" is_visible="true" lpeversion="1" /><inkscape:path-effect effect="spiro" id="path-effect850" is_visible="true" lpeversion="1" /><inkscape:path-effect effect="spiro" id="path-effect851" is_visible="true" lpeversion="1" />
  <svg:style type="text/css" id="style2">
   
    .fil0 {fill:#EF7F1A;fill-rule:nonzero}
   
  </svg:style>
 <inkscape:path-effect effect="spiro" id="path-effect1214" is_visible="true" lpeversion="1" /><inkscape:path-effect effect="spiro" id="path-effect1195" is_visible="true" lpeversion="1" /><inkscape:path-effect effect="spiro" id="path-effect992" is_visible="true" lpeversion="1" /><inkscape:path-effect effect="spiro" id="path-effect1060" is_visible="true" lpeversion="1" /><inkscape:path-effect effect="spiro" id="path-effect1047" is_visible="true" lpeversion="1" /><inkscape:path-effect effect="spiro" id="path-effect1085" is_visible="true" lpeversion="1" /><inkscape:path-effect effect="spiro" id="path-effect1286" is_visible="true" lpeversion="1" /><inkscape:path-effect effect="spiro" id="path-effect1305" is_visible="true" lpeversion="1" /></svg:defs>
 
<svg:g id="path850"><svg:path style="color:#000000;clip-rule:nonzero;fill:#1a5fb4;fill-rule:nonzero;stroke-linecap:round;stroke-linejoin:round;-inkscape-stroke:none;paint-order:fill stroke markers;shape-rendering:auto" d="M 425.04297,70.117187 C 419.0295,69.665042 413.03606,70.503718 407.74609,72.412109 C 355.66953,91.19908 300.69546,102.126 245.40039,104.65625 C 190.53551,107.16681 135.23076,101.41619 82.039062,87.697266 C 70.670269,84.765086 56.749945,86.522287 46.253906,94.453125 C 35.757868,102.38396 30.181243,115.53247 30.041016,127.39453 C 29.313243,188.95819 25.5577,250.48898 18.791016,311.68359 C 14.108044,354.03412 7.9829671,396.22583 0.43164063,438.16016 C -3.4559519,459.74889 3.5719416,476.28396 22.128906,488.29492 L 99.326172,538.25977 C 108.29393999999999,544.06414 123.38526,547.5039400000001 136.35547,541.4375 C 149.32568,535.3710599999999 155.60819,523.26773 157.64844,513.45312 C 160.93021,497.66612000000003 169.34897,482.52007000000003 180.96289,471.61523 C 194.80594,458.61737 214.39236999999997,450.62494 233.37695,450.22461 C 254.5318,449.77851 277.06711,458.64585 293.68555,473.5293 C 310.47184999999996,488.56307 322.48059,510.28837 327.52344,533.4609399999999 C 332.99307,558.59466 330.47538,585.88654 320.40039,609.3476599999999 C 310.33737,632.7808999999999 292.28880000000004,653.2778399999999 270.38672,665.9706999999999 C 252.58470000000003,676.2874699999999 231.58842000000004,681.9821099999998 210.58984000000004,682.4218699999999 C 189.55105000000003,682.8624799999999 168.01879000000002,678.1036599999999 148.58008000000004,668.9785199999999 C 120.51352000000004,655.8031899999999 96.39091600000003,632.9702499999999 81.48242200000004,605.6523399999999 C 79.37329400000004,601.7876399999999 76.71696300000005,597.6962499999998 71.72656200000004,593.5292999999999 C 66.73616200000005,589.3623499999999 58.08264300000005,584.9186 47.90234400000004,585.57031 C 37.722045000000044,586.2220199999999 29.209751000000043,592.05296 24.732422000000042,597.19531 C 20.25509300000004,602.33767 18.308111000000043,607.00817 16.890625000000043,611.2832 L -16.464843999999957,711.88086 C -23.472644999999957,733.01586 -18.393777999999955,751.65047 0.26171875000004263,765.48828 C 32.510217,789.40877 68.776563,807.7636 107.18555,819.54687 C 175.377,840.46694 252.50374,840.25269 318.93164,807.13086 C 365.33631,783.99288 402.7515,746.58555 428.41211,702.96484 C 454.00504,659.45917 467.79391999999996,610.48525 472.02734,561.46289 C 477.38437999999996,499.42926 467.31836,433.35548000000006 432.04102,378.11523 C 414.3806,350.46106 390.71041,326.22218 361.9082,308.80273 C 333.03243000000003,291.33879 299.50056,281.14755 264.91797,281.2207 C 229.94539000000003,281.29470000000003 196.59077000000002,291.79537000000005 167.56445000000002,308.16602 C 164.37649000000002,309.96401000000003 161.26502000000002,311.85559 158.18555000000003,313.7832 C 164.16471000000004,289.71744 172.49748000000002,266.22335000000004 182.96094000000005,243.71875000000003 C 196.61836000000005,247.04482000000002 210.34730000000005,250.07426000000004 224.20508000000007,252.45117000000002 C 294.65911000000006,264.53557 367.1215700000001,264.12864 437.42969000000005,251.30664000000002 C 460.73299000000003,247.05685000000003 475.69046000000003,226.11777 472.93555000000003,203.02539000000002 L 461.2832,105.34961 C 459.93256,94.028151 453.19695,82.083658 442.45898,75.570312 C 437.09,72.31364 431.05643,70.569333 425.04297,70.117187 M 404.60547,136.76367 L 411.51562,194.69922 C 352.89915,203.70045 292.77721,203.33605 234.34961,193.31445 C 227.48052,192.13626 220.66628,190.65932999999998 213.84570000000002,189.2207 C 214.14007,188.78852 214.40309000000002,188.33524 214.69922000000003,187.9043 A 30.003,30.003 0.0 0,0 219.11523000000003,165.14648 C 228.79310000000004,165.16468 238.47153000000003,165.03629 248.14258,164.59375 C 301.23592,162.16425 353.9411,152.75089 404.60546999999997,136.76367 L 404.60547,136.76367 M 89.482422,151.12891 C 97.902811,152.96517 106.36841,154.57509 114.85742,156.05469 L 101.74805,158.8125 A 30.003,30.003 0.0 0,0 89.144531,165.0918 C 89.288409,160.43832 89.372071,155.78332 89.482422,151.12891000000002 L 89.482422,151.12891 M 87.269531,208.97460999999998 A 30.003,30.003 0.0 0,0 96.589844,215.94726999999997 C 105.93057,219.75778999999997 115.39023,223.26683999999997 124.90625,226.60936999999998 C 111.03359,258.0673 100.64421,291.05647999999997 94.337891,324.9043 C 91.134685,342.09682 89.068332,359.47371999999996 87.908203,376.90625 C 80.489553,385.83168 73.398439,395.02301 66.849609,404.59961 C 71.333578,375.91333 75.236606,347.13635999999997 78.427734,318.27734 C 82.445885,281.93913 85.312416,245.48109 87.269531,208.97460999999998 M 265.04492,341.2207 C 287.6076,341.173 310.83517,348.03516 330.85742,360.14453000000003 C 350.95324,372.29839000000004 368.37591,389.90021 381.47266,410.4082 C 407.70964000000004,451.49229 416.72422,504.4674 412.24805000000003,556.30078 C 408.68437000000006,597.56762 397.05496000000005,637.93672 376.69727,672.54297 C 356.40724,707.03418 326.85615,736.13469 292.1582,753.4355499999999 C 242.53297000000003,778.1793499999999 180.56825000000003,779.2995199999999 124.78320000000002,762.1855499999999 C 95.79582900000003,753.2926799999999 68.16514900000001,739.7636399999999 43.24804700000003,722.4316399999999 L 58.67773400000003,675.9003899999999 C 76.81676800000002,695.57918 98.65077700000003,711.8213 123.08398000000003,723.2910199999999 C 150.60138000000003,736.2085499999998 181.02532000000002,743.0536999999999 211.84766000000002,742.4081999999999 C 242.71021000000002,741.7618599999998 273.39415,733.5775199999998 300.47266,717.8847699999999 C 333.97399,698.4698099999999 360.32885,668.4290499999998 375.5332,633.0234399999999 C 390.72559,597.6456999999999 394.29934000000003,558.13772 386.15234000000004,520.7011699999999 C 378.61455000000007,486.06395999999995 361.00028000000003,453.2707699999999 333.71484000000004,428.83397999999994 C 306.26155000000006,404.24686999999994 270.10618000000005,389.4351199999999 232.11133000000004,390.23632999999995 C 201.04717000000005,390.89138999999994 171.10321000000005,402.10995999999994 147.15234000000004,421.66601999999995 C 146.88233000000002,414.68582999999995 146.84095000000005,407.70178999999996 146.94727000000003,400.7167999999999 C 162.17460000000003,384.66482999999994 178.85704000000004,370.6822699999999 197.03906000000003,360.42772999999994 C 218.40610000000004,348.37686999999994 242.16201000000004,341.26910999999996 265.04492000000005,341.22069999999997 L 265.04492,341.2207" id="path12922" /></svg:g></svg:svg>

<svg:svg xmlns:cc="http://creativecommons.org/ns#" xmlns:dc="http://purl.org/dc/elements/1.1/" xmlns:inkscape="http://www.inkscape.org/namespaces/inkscape" xmlns:rdf="http://www.w3.org/1999/02/22-rdf-syntax-ns#" xmlns:sodipodi="http://sodipodi.sourceforge.net/DTD/sodipodi-0.dtd" xmlns:svg="http://www.w3.org/2000/svg" xml:space="preserve" width="1000" height="1000" version="1.1" style="clip-rule:evenodd;fill-rule:evenodd;image-rendering:optimizeQuality;shape-rendering:geometricPrecision;text-rendering:geometricPrecision" viewBox="0 0 1000 1000" id="svg10" sodipodi:docname="5.svg" inkscape:version="1.1.1 (3bf5ae0d25, 2021-09-20)"><svg:metadata id="metadata14"><rdf:RDF><cc:Work rdf:about=""><dc:format>image/svg+xml</dc:format><dc:type rdf:resource="http://purl.org/dc/dcmitype/StillImage" /></cc:Work></rdf:RDF></svg:metadata><sodipodi:namedview pagecolor="#ffffff" bordercolor="#666666" borderopacity="1" objecttolerance="10" gridtolerance="10" guidetolerance="10" inkscape:pageopacity="0" inkscape:pageshadow="2" inkscape:window-width="1920" inkscape:window-height="1009" id="namedview12" showgrid="false" inkscape:zoom="0.84890885" inkscape:cx="178.46439" inkscape:cy="418.18388" inkscape:window-x="1920" inkscape:window-y="0" inkscape:window-maximized="1" inkscape:current-layer="svg10" showguides="true" inkscape:guide-bbox="true" inkscape:document-rotation="0" inkscape:pagecheckerboard="0"><sodipodi:guide position="0,1000" orientation="0,1" id="guide16" inkscape:label="" inkscape:locked="true" inkscape:color="rgb(0,0,255)" /><sodipodi:guide position="1763.3122,2036.1693" orientation="1000,0" id="guide18" /><sodipodi:guide position="0,200" orientation="0,1" id="guide20" inkscape:label="base" inkscape:locked="true" inkscape:color="rgb(0,0,255)" /><inkscape:grid type="xygrid" id="grid24" originx="-473.37552" originy="-489.69235" /><sodipodi:guide position="0,0" orientation="0,1" id="guide34" inkscape:label="bottom" inkscape:locked="true" inkscape:color="rgb(0,0,255)" /><sodipodi:guide position="225.05109,1693.3186" orientation="0,1" id="guide44" inkscape:label="" inkscape:locked="false" inkscape:color="rgb(0,0,255)" /><sodipodi:guide position="0,900" orientation="0,1" id="guide46" inkscape:label="" inkscape:locked="true" inkscape:color="rgb(0,0,255)" /><sodipodi:guide position="449.2851,654.88351" orientation="-1,0" id="guide841" inkscape:label="width" inkscape:locked="false" inkscape:color="rgb(0,0,255)" /></sodipodi:namedview>
 <svg:defs id="defs4"><inkscape:path-effect effect="fillet_chamfer" id="path-effect8273" is_visible="true" lpeversion="1" satellites_param="F,0,0,1,0,0,0,1 @ F,0,0,1,0,12.857876,0,1 @ F,0,0,1,0,12.857876,0,1 @ F,0,0,1,0,0,0,1 @ F,0,0,1,0,0,0,1 @ F,0,0,1,0,0,0,1 @ F,0,0,1,0,0,0,1 @ F,0,0,1,0,0,0,1 @ F,0,0,1,0,0,0,1 @ F,0,0,1,0,0,0,1 @ F,0,0,1,0,0,0,1 @ F,0,0,1,0,0,0,1 @ F,0,0,1,0,0,0,1 @ F,0,0,1,0,0,0,1 @ F,0,0,1,0,0,0,1 @ F,0,0,1,0,0,0,1 @ F,0,0,1,0,0,0,1 @ F,0,0,1,0,0,0,1 @ F,0,0,1,0,12.857876,0,1 @ F,0,0,1,0,12.857876,0,1 @ F,0,0,1,0,0,0,1 @ F,0,0,1,0,0,0,1 @ F,0,0,1,0,0,0,1 @ F,0,0,1,0,0,0,1 @ F,0,0,1,0,0,0,1 @ F,0,0,1,0,0,0,1 @ F,0,0,1,0,0,0,1 @ F,0,0,1,0,0,0,1 @ F,0,0,1,0,12.857876,0,1 @ F,0,0,1,0,12.857876,0,1 @ F,0,0,1,0,0,0,1 @ F,0,0,1,0,14.911836,0,1" unit="px" method="auto" mode="F" radius="0" chamfer_steps="1" flexible="false" use_knot_distance="true" apply_no_radius="true" apply_with_radius="true" only_selected="false" hide_knots="false" /><inkscape:path-effect effect="fillet_chamfer" id="path-effect855" is_visible="true" lpeversion="1" satellites_param="F,0,0,1,0,13.229378,0,1 @ F,0,0,1,0,14.338826,0,1 @ F,0,0,1,0,0,0,1 @ F,0,0,1,0,0,0,1 @ F,0,0,1,0,0,0,1 @ F,0,0,1,0,0,0,1 @ F,0,0,1,0,0,0,1 @ F,0,0,1,0,0,0,1 @ F,0,0,1,0,0,0,1 @ F,0,0,1,0,0,0,1 @ F,0,0,1,0,0,0,1 @ F,0,0,1,0,0,0,1 @ F,0,0,1,0,0,0,1 @ F,0,0,1,0,0,0,1 @ F,0,0,1,0,0,0,1 @ F,0,0,1,0,0,0,1 @ F,0,0,1,0,13.824939,0,1 @ F,0,0,1,0,23.112865,0,1 @ F,0,0,1,0,0,0,1 @ F,0,0,1,0,0,0,1 @ F,0,0,1,0,0,0,1 @ F,0,0,1,0,0,0,1 @ F,0,0,1,0,0,0,1 @ F,0,0,1,0,0,0,1 @ F,0,0,1,0,0,0,1 @ F,0,0,1,0,0,0,1 @ F,0,0,1,0,12.475733,0,1 @ F,0,0,1,0,10.867114,0,1 @ F,0,0,1,0,0,0,1 @ F,0,0,1,0,10.322295,0,1 @ F,0,0,1,0,8.7255378,0,1" unit="px" method="auto" mode="F" radius="0" chamfer_steps="1" flexible="false" use_knot_distance="true" apply_no_radius="true" apply_with_radius="true" only_selected="true" hide_knots="false" /><inkscape:path-effect effect="fillet_chamfer" id="path-effect854" is_visible="true" lpeversion="1" satellites_param="F,0,0,1,0,26.881322,0,1 @ F,0,0,1,0,36.39013,0,1 @ F,0,0,1,0,0,0,1 @ F,0,0,1,0,0,0,1 @ F,0,0,1,0,0,0,1 @ F,0,0,1,0,0,0,1 @ F,0,0,1,0,0,0,1 @ F,0,0,1,0,0,0,1 @ F,0,0,1,0,0,0,1 @ F,0,0,1,0,0,0,1 @ F,0,0,1,0,0,0,1 @ F,0,0,1,0,0,0,1 @ F,0,0,1,0,26.312658,0,1 @ F,0,0,1,0,28.862908,0,1 @ F,0,0,1,0,0,0,1 @ F,0,0,1,0,0,0,1 @ F,0,0,1,0,0,0,1 @ F,0,0,1,0,0,0,1 @ F,0,0,1,0,0,0,1 @ F,0,0,1,0,0,0,1 @ F,0,0,1,0,0,0,1 @ F,0,0,1,0,0,0,1 @ F,0,1,1,0,15.310125,0,1 @ F,0,0,1,0,30.981965,0,1 @ F,0,0,1,0,0,0,1 @ F,0,0,1,0,21.626853,0,1" unit="px" method="auto" mode="F" radius="0" chamfer_steps="1" flexible="false" use_knot_distance="true" apply_no_radius="true" apply_with_radius="true" only_selected="true" hide_knots="false" /><inkscape:path-effect effect="spiro" id="path-effect853" is_visible="true" lpeversion="1" /><inkscape:path-effect effect="spiro" id="path-effect852" is_visible="true" lpeversion="1" /><inkscape:path-effect effect="spiro" id="path-effect850" is_visible="true" lpeversion="1" /><inkscape:path-effect effect="spiro" id="path-effect851" is_visible="true" lpeversion="1" />
  <svg:style type="text/css" id="style2">
   
    .fil0 {fill:#EF7F1A;fill-rule:nonzero}
   
  </svg:style>
 <inkscape:path-effect effect="spiro" id="path-effect1214" is_visible="true" lpeversion="1" /><inkscape:path-effect effect="spiro" id="path-effect1195" is_visible="true" lpeversion="1" /><inkscape:path-effect effect="spiro" id="path-effect992" is_visible="true" lpeversion="1" /><inkscape:path-effect effect="spiro" id="path-effect1060" is_visible="true" lpeversion="1" /><inkscape:path-effect effect="spiro" id="path-effect1047" is_visible="true" lpeversion="1" /><inkscape:path-effect effect="spiro" id="path-effect1085" is_visible="true" lpeversion="1" /><inkscape:path-effect effect="spiro" id="path-effect1286" is_visible="true" lpeversion="1" /><inkscape:path-effect effect="spiro" id="path-effect1305" is_visible="true" lpeversion="1" /></svg:defs>
 
<svg:g id="path850"><svg:path style="color:#000000;clip-rule:nonzero;fill:#1a5fb4;fill-rule:nonzero;stroke-linecap:round;stroke-linejoin:round;-inkscape-stroke:none;shape-rendering:auto" d="M 425.04297,70.117187 C 419.0295,69.665042 413.03606,70.503718 407.74609,72.412109 355.66953,91.19908 300.69546,102.126 245.40039,104.65625 190.53551,107.16681 135.23076,101.41619 82.039062,87.697266 70.670269,84.765086 56.749945,86.522287 46.253906,94.453125 35.757868,102.38396 30.181243,115.53247 30.041016,127.39453 29.313243,188.95819 25.5577,250.48898 18.791016,311.68359 14.108044,354.03412 7.9829671,396.22583 0.43164063,438.16016 -3.4559519,459.74889 3.5719416,476.28396 22.128906,488.29492 l 77.197266,49.96485 c 8.967768,5.80437 24.059088,9.24417 37.029298,3.17773 12.97021,-6.06644 19.25272,-18.16977 21.29297,-27.98438 3.28177,-15.787 11.70053,-30.93305 23.31445,-41.83789 13.84305,-12.99786 33.42948,-20.99029 52.41406,-21.39062 21.15485,-0.4461 43.69016,8.42124 60.3086,23.30469 16.7863,15.03377 28.79504,36.75907 33.83789,59.93164 5.46963,25.13372 2.95194,52.4256 -7.12305,75.88672 -10.06302,23.43324 -28.11159,43.93018 -50.01367,56.62304 -17.80202,10.31677 -38.7983,16.01141 -59.79688,16.45117 -21.03879,0.44061 -42.57105,-4.31821 -62.00976,-13.44335 -28.06656,-13.17533 -52.189164,-36.00827 -67.097658,-63.32618 -2.109128,-3.8647 -4.765459,-7.95609 -9.75586,-12.12304 -4.9904,-4.16695 -13.643919,-8.6107 -23.824218,-7.95899 -10.180299,0.65171 -18.692593,6.48265 -23.169922,11.625 -4.477329,5.14236 -6.424311,9.81286 -7.841797,14.08789 l -33.355469,100.59766 c -7.007801,21.135 -1.928934,39.76961 16.72656275,53.60742 C 32.510217,789.40877 68.776563,807.7636 107.18555,819.54687 c 68.19145,20.92007 145.31819,20.70582 211.74609,-12.41601 46.40467,-23.13798 83.81986,-60.54531 109.48047,-104.16602 25.59293,-43.50567 39.38181,-92.47959 43.61523,-141.50195 5.35704,-62.03363 -4.70898,-128.10741 -39.98632,-183.34766 -17.66042,-27.65417 -41.33061,-51.89305 -70.13282,-69.3125 -28.87577,-17.46394 -62.40764,-27.65518 -96.99023,-27.58203 -34.97258,0.074 -68.3272,10.57467 -97.35352,26.94532 -3.18796,1.79799 -6.29943,3.68957 -9.3789,5.61718 5.97916,-24.06576 14.31193,-47.55985 24.77539,-70.06445 13.65742,3.32607 27.38636,6.35551 41.24414,8.73242 70.45403,12.0844 142.91649,11.67747 213.22461,-1.14453 23.3033,-4.24979 38.26077,-25.18887 35.50586,-48.28125 L 461.2832,105.34961 C 459.93256,94.028151 453.19695,82.083658 442.45898,75.570312 437.09,72.31364 431.05643,70.569333 425.04297,70.117187 Z m -20.4375,66.646483 6.91015,57.93555 c -58.61647,9.00123 -118.73841,8.63683 -177.16601,-1.38477 -6.86909,-1.17819 -13.68333,-2.65512 -20.50391,-4.09375 0.29437,-0.43218 0.55739,-0.88546 0.85352,-1.3164 a 30.003,30.003 0 0 0 4.41601,-22.75782 c 9.67787,0.0182 19.3563,-0.11019 29.02735,-0.55273 53.09334,-2.4295 105.79852,-11.84286 156.46289,-27.83008 z M 89.482422,151.12891 c 8.420389,1.83626 16.885988,3.44618 25.374998,4.92578 l -13.10937,2.75781 a 30.003,30.003 0 0 0 -12.603519,6.2793 c 0.143878,-4.65348 0.22754,-9.30848 0.337891,-13.96289 z m -2.212891,57.8457 a 30.003,30.003 0 0 0 9.320313,6.97266 c 9.340726,3.81052 18.800386,7.31957 28.316406,10.6621 -13.87266,31.45793 -24.26204,64.44711 -30.568359,98.29493 -3.203206,17.19252 -5.269559,34.56942 -6.429688,52.00195 -7.41865,8.92543 -14.509764,18.11676 -21.058594,27.69336 4.483969,-28.68628 8.386997,-57.46325 11.578125,-86.32227 4.018151,-36.33821 6.884682,-72.79625 8.841797,-109.30273 z M 265.04492,341.2207 c 22.56268,-0.0477 45.79025,6.81446 65.8125,18.92383 20.09582,12.15386 37.51849,29.75568 50.61524,50.26367 26.23698,41.08409 35.25156,94.0592 30.77539,145.89258 -3.56368,41.26684 -15.19309,81.63594 -35.55078,116.24219 -20.29003,34.49121 -49.84112,63.59172 -84.53907,80.89258 -49.62523,24.7438 -111.58995,25.86397 -167.375,8.75 -28.987371,-8.89287 -56.618051,-22.42191 -81.535153,-39.75391 l 15.429687,-46.53125 c 18.139034,19.67879 39.973043,35.92091 64.406246,47.39063 27.5174,12.91753 57.94134,19.76268 88.76368,19.11718 30.86255,-0.64634 61.54649,-8.83068 88.625,-24.52343 33.50133,-19.41496 59.85619,-49.45572 75.06054,-84.86133 15.19239,-35.37774 18.76614,-74.88572 10.61914,-112.32227 -7.53779,-34.63721 -25.15206,-67.4304 -52.4375,-91.86719 -27.45329,-24.58711 -63.60866,-39.39886 -101.60351,-38.59765 -31.06416,0.65506 -61.00812,11.87363 -84.95899,31.42969 -0.27001,-6.98019 -0.31139,-13.96423 -0.20507,-20.94922 15.22733,-16.05197 31.90977,-30.03453 50.09179,-40.28907 21.36704,-12.05086 45.12295,-19.15862 68.00586,-19.20703 z" id="path12904" /></svg:g></svg:svg>
